X: 10122
T: FREE MASON'S MARCH
C:
%R: march, jig
B: Elias Howe "The Musician's Companion" Part 1 1842 p.12 #2
S: http://imslp.org/wiki/The_Musician's_Companion_(Howe,_Elias)
Z: 2015 John Chambers <jc:trillian.mit.edu>
M: 6/8
L: 1/8
K: D
% - - - - - - - - - - - - - - - - - - - - - - - - -
A |\
def fed | cde edc | def fed | (f/g/)aa a2 :: f |\
fab a2g | fed a2f | gfg eag | fdd d2 :|
% - - - - - - - - - - - - - - - - - - - - - - - - -
